X:311
T:My Home's Across the Blue Ridge Mountains
C:Ashby Frank (Mashville Brigade, "Smash Bluegrass Hits, Vol. 1")
N:Transcribed by Steve Keating
R:bluegrass
L:1/8
Q:1/4=255
M:4/4
K:A
z8 | z2 Ee EF Ae | "A"B/c/c ce c/e/e ef | ed ed cB AF | E2 F2 F/A/A AB | AF EF AF Ac | 
"E"AB Bc Bc BB | cB AF EF AB | "A"c2 d2 d/e/e ef | ec ea fd fa | c'a fe a=c' ^c'a | 
(3=c'ba fe af [e2A2] | [e2A2] [f2A2] ea ab | a=c' ac' ^c'a b2 | "E"D[ac] z=g ^ge cB | 
c/e/e ef ed ed | "A"cA =cB AE FE | cA FE AF ED | EE DC DC B,D | A,A, A,A, A,A, A,A, | 
A,8 | z8 | z8 | z8 | 


